src/assets/icons/multicolor/checkboxOff.multicolor.svg

<svg width="26" height="26" fill="none">
  <path fill="#093971" stroke="#093971" stroke-width=".25" d="M24.6011 6.67552c-.2893 0-.5238.23453-.5238.52388v11.6011c0 2.9094-2.3672 5.2767-5.2765 5.2767H7.20015c-2.90925 0-5.27648-2.3673-5.27648-5.2767V7.1994c0-2.9094 2.36723-5.27668 5.27648-5.27668H18.8008c.2894 0 .5239-.23453.5239-.52388 0-.28936-.2345-.52384-.5239-.52384H7.20015C3.71296.875.875977 3.71205.875977 7.1994v11.6011c0 3.4873 2.836973 6.3244 6.324173 6.3244H18.8008c3.4872 0 6.3242-2.8371 6.3242-6.3244V7.1994c0-.28935-.2345-.52388-.5239-.52388z"/>
  <path fill="#093971" stroke="#093971" stroke-width=".25" d="M1.39887 19.3245c.28938 0 .52383-.2346.52383-.5239V7.1995c0-2.90941 2.36723-5.27669 5.27647-5.27669H18.7999c2.9092 0 5.2764 2.36728 5.2764 5.27668V18.8006c0 2.9094-2.3672 5.2767-5.2764 5.2767H7.19917c-.28937 0-.52382.2345-.52382.5239 0 .2893.23446.5238.52382.5238H18.7999c3.4871 0 6.3241-2.8371 6.3241-6.3244V7.19949c0-3.48735-2.837-6.324446-6.3241-6.324446L7.19917.875045C3.71198.875046.875006 3.71214.875006 7.1995l.000001 11.6011c0 .2893.234453.5239.523863.5239z"/>
</svg>

<svg width="26" height="26" viewBox="0 0 26 26" fill="none" xmlns="http://www.w3.org/2000/svg">
<path d="M24.6011 6.67552C24.3118 6.67552 24.0773 6.91005 24.0773 7.1994V18.8005C24.0773 21.7099 21.7101 24.0772 18.8008 24.0772H7.20015C4.2909 24.0772 1.92367 21.7099 1.92367 18.8005V7.1994C1.92367 4.29 4.2909 1.92272 7.20015 1.92272H18.8008C19.0902 1.92272 19.3247 1.68819 19.3247 1.39884C19.3247 1.10948 19.0902 0.875 18.8008 0.875H7.20015C3.71296 0.875 0.875977 3.71205 0.875977 7.1994V18.8005C0.875977 22.2878 3.71295 25.1249 7.20015 25.1249H18.8008C22.288 25.1249 25.125 22.2878 25.125 18.8005V7.1994C25.125 6.91005 24.8905 6.67552 24.6011 6.67552Z" fill="#093971" stroke="#093971" stroke-width="0.25"/>
<path d="M1.39887 19.3245C1.68825 19.3245 1.9227 19.0899 1.9227 18.8006L1.9227 7.1995C1.9227 4.29009 4.28993 1.92281 7.19917 1.92281L18.7999 1.92281C21.7091 1.92281 24.0763 4.29009 24.0763 7.19949L24.0763 18.8006C24.0763 21.71 21.7091 24.0773 18.7999 24.0773L7.19917 24.0773C6.9098 24.0773 6.67535 24.3118 6.67535 24.6012C6.67535 24.8905 6.90981 25.125 7.19917 25.125L18.7999 25.125C22.287 25.125 25.124 22.2879 25.124 18.8006L25.124 7.19949C25.124 3.71214 22.287 0.875044 18.7999 0.875044L7.19917 0.875045C3.71198 0.875046 0.875006 3.71214 0.875006 7.1995L0.875007 18.8006C0.875007 19.0899 1.10946 19.3245 1.39887 19.3245Z" fill="#093971" stroke="#093971" stroke-width="0.25"/>
</svg>
